X:1
T:Eichendorff-Lieder
T:Der Scholar
T:Eichendorff-Lieder
T:13. Der Scholar
T:Hugo Wolf
T:Joseph von Eichendorff
T:OpenScore (CC0)
T:OpenScore (CC0)
T:OpenScore (CC0)
T:OpenScore (CC0)
T:OpenScore (CC0)
C:Hugo Wolf
Z:Joseph von Eichendorff
Z:OpenScore (CC0)
%%score ( 1 2 ) { ( 3 5 ) | 4 }
L:1/8
Q:1/4=110
M:4/4
K:C
V:1 treble nm="Voice"
V:2 treble 
V:3 treble nm="Piano"
V:5 treble 
V:4 bass 
V:1
"^Gemächlich" z8 | z8 | z8 |[K:treble] z8 | d2 f2 e3 c | (B>d) (c>B) A2 E2 | F2 d2 ^d2 ^F2 | %7
w: ||||Bei dem an- ge-|nehm- * sten * Wet- ter|sin- gen al- le|
w: ||||When 'tis pleas- ant|sum- * mer * wea- ther,|all birds sing with|
 G2 =f2 e2 z2 | d2 f2 e3 c | (B>d) (c>B) A2 E2 | d2 c2 B2 A2 | c2 (3(BcB) A4 | z8 | z8 | z8 | z8 | %16
w: Vö- ge- lein,|klatscht der Re- gen|auf * die * Blät- ter,|sing ich so für|mich al- * * lein.|||||
w: cheer- ful tone;|when it rains o'er|wood * and * hea- ther,|mer- ry still, I|sing a- * * lone.|||||
!f! c3 c d3 e | (f>e) (d>c) d2 G2 | ^d3 d e3 g | g2 ^f2 =f4 | c3 c d3 e | (f>e) (d>^c) d2 A2 | %22
w: Denn mein Aug' kann|nichts * ent- * dek- ken,|wenn der Blitz auch|grau- sam glüht,|was im Wan- dern|könnt' * er- * schrek- ken|
w: For mine eye can-|not * dis- * cov- er,|though swift light'- nings|flash and dart,|aught to rouse one|thought * of * ter- ror|
!p! B2 B2 B2 e2 | ^G2 ^F2 E2 z2 |!f! =f2 f2 e3 c | (B>d) (c>B) A2 E2 | !>!F2 !>!d2 !>!^F2 !>!^d2 | %27
w: ein zu- frie- de-|nes Ge- müt.|Frei von Mam- mon|will * ich * schrei- ten|auf dem Feld der|
w: in a pure con-|tent- ed heari.|Free from Mam- mon's|power * I * wan- der,|bow my head at|
 !>!G2 !>!=f2 !>!e4 |!p! d2 f2 e3 c | (B>d) (c>B) A2 E2 | d2 c2 B2 A2 | c2 (3(BcB) A4 | z8 | z8 | %34
w: Wis- sen- schaft,|sin- ne ernst und|nehm' * zu * Zei- ten|ei- nen Mund voll|Re- ben- * * saft.|||
w: Na- ture's shrine,|o'er her works I,|mar- * velling, * pon- der,|while I drink her|pearl- ing * * wine.|||
 z8[Q:1/4=100] |[Q:1/4=90] !fermata!z8[Q:1/4=80] |!p![Q:1/4=110] e2 e2 _e4- | e _e d3/2 c/ B2 G2 | %38
w: ||Bin ich mü-|* de vom Stu- die- ren,|
w: ||But, when tired|* of books and read- ing,|
 =E2 G2 c3 c |[Q:1/4=90]"^etwas zurückhaltend" c2 d2 !breath!e4 |[Q:1/4=110]"^a tempo" f2 f2 e3 c | %41
w: wann der Mond tritt|sanft her- für,|pfleg' ich dann zu|
w: an the moon shine|bright a- bove,|to her lat- ticed|
 (B>d) (c>B) A2 E2 | (F_B) (cd)[Q:1/4=90]"^etwas zurückhaltend" (ef)[Q:1/4=85] (eA) | %43
w: mu- * si- * zie- ren|vor * der * Al- * ler- *|
w: win- * dow * speed- *|sing * my * songs * to *|
[Q:1/4=80] c2[Q:1/4=75] =B2 A4 |[Q:1/4=110] z8 | z8 | z8 | z8 | z8 | z8 | z8 |] %51
w: schön- sten Tür.||||||||
w: her I love.||||||||
V:2
 x8 | x8 | x8 |[K:treble] x8 | x8 | x8 | x8 | x8 | x8 | x8 | x8 | x8 | x8 | x8 | x8 | x8 | x8 | %17
w: |||||||||||||||||
w: |||||||||||||||||
 x8 | x8 | x8 | x8 | x8 | x8 | x8 | x8 | x8 | x8 | x8 | x8 | x8 | x8 | x8 | x8 | x8 | x8 | x8 | %36
w: |||||||||||||||||||
w: |||||||||||||||||||
 x8 | x8 | x8 | x8 | x8 | x4 x2 E E | x8 | x8 | x8 | x8 | x8 | x8 | x8 | x8 | x8 |] %51
w: |||||||||||||||
w: |||||ing, I||||||||||
V:3
 .[df] z!p! .[df]z/(([df]/ [^GB]4)) | .[ce] z .[ce]z/(([ce]/ [FA]4)) | %2
 [FA_B]z/([FAB]/ f2) [FAB]z/([FAB]/ _b2) | (3(^GA=B (3c^cd (3^def (3^fg^g) | %4
 .[fa] z .[fa]z/.[fa]/ .[ce] z .[ce] z | %5
 [Bd]z/(([df]/ [ce]))z/(([Bd]/ [Ac]))z/(([ce]/ [Bd]))z/[Ac]/ | %6
 .[A_B] z .[AB]z/[AB]/ .[A=B] z .[AB]z/.[AB]/ | .[_Bc] z .[Bc]z/.[Bc]/ [A^c]4 | %8
 .[fa] z .[fa]z/.[fa]/ .[ce] z .[ce] z | %9
 [Bd]z/([df]/ [ce])z/(([Bd]/ [Ac]))z/(([ce]/ [Bd]))z/[Ac]/ | %10
 .[A_B] z .[AB]z/.[AB]/ .[A=B] z .[AB]z/.[AB]/ | x2 (3e^f^g x4 | %12
!p! .[d'f'] z .[d'f']z/(([d'f']/ [^gb]4)) | .[c'e'] z .[c'e']z/(([c'e']/ [fa]4)) | %14
 [fa_b]z/([fab]/ f'2) [fab]z/([fb]/ _b'2) | (^G/A/=B/c/ d/e/^f/^g/ [ca]2) z2 | %16
!mf! [Ec]2 [Ece]>[Ece] [Gcd]2 [Gdg]>[Aeg] |"_cresc." [Af]2 [=cda]>[cda] [cd]2 [dfg]>[dfg] | %18
 [B^dg]2 [Bab]>[Bab] [ceg]2 [cec']>[cec'] |!ff! [_ega]2 [dc'd']>[dc'd'] [dc'd']2 [gf'g']>[gf'g'] | %20
!mf! [Gce]2 [ceg]>[ceg] [cdg]2 [Gd]>[GAe] |!<(! [Af]2 [Ada]>[^cea] [dfa]2 [dfa]>!f![dfa]!<)! | %22
!p! [^d^fa]2 [dfa]>[dfa] [Beb]2 [Beb]>[Beb] | [B^gb]2 [Bab]2 [Bgb]2 z2 | %24
!f! [=FBd]2 [FBd]>[FBd] [EAc]2 [Ace]2 | %25
 [Bd]z/(([df]/ [ce]))z/(([Bd]/ [Ac]))z/(([ce]/ [Bd]))z/[Ac]/ | %26
 [A_B]2 [AB]z/[AB]/ [A=B]2 [AB]z/[AB]/ |!<(! [_Bc]2 [Bc]z/[Bc]/ [A^c]4!<)! | %28
!p! .[fa] z .[fa]z/.[fa]/ .[=ce] z .[ce] z | %29
 [Bd]z/(([df]/ [ce]))z/(([Bd]/ [Ac]))z/(([ce]/ [Bd]))z/[Ac]/ | %30
 .[A_B]2 .[AB]z/.[AB]/ .[A=B] z .[AB]z/.[AB]/ | x2 (3e^f^g x4 | %32
!f! [f^gb]2 [fgb]>[fgb] (([ce]2 [FA]2)) | [f^gb]2 [fgb]>[fgb] ((([ce]2 [FA]2))) | %34
!>(! [f^gb]2 [fgb]>[fgb]!>)!!p! ([ce]>[df][ce]>[df] | %35
"_dim.""_dim." [ce]>[df][ce]>[Ad] !fermata![Be]4) |!p! [e=ga]2 [ega]2 [_ea=c']2 [eac']>[eac'] | %37
 [ga_e']2 [fd'e']>[fc'e'] [fe'f']2 [=ge'f']>[gd'f'] | %38
 ((!arpeggio![c'=e'g']2 [eg]2) (!arpeggio![c'e']2 [ce]2) | %39
 (!arpeggio![ac']2 [Ac]2) (!arpeggio![e^gb]2 [^GB]2)) | .[fa] z .[fa]z/[fa]/ .[ce] z [ce] z | %41
 [Bd]z/(([df]/ [ce]))z/(([Bd]/ [Ac]))z/(([ce]/ [Bd]))z/[Ac]/ | %42
 [F_B]z/(d/ c)z/(B/ [EA])z/(c/ =B)z/A/ | [FA]z/f/ [de]z/^g/ [^ca]4 | %44
!p!"^a tempo"!8va(! [f'^g'b'] z [f'g'b']z/[f'g'b']/ ([^c'e']2 [a'^c'']) z | %45
 [f'^g'b'] z [f'g'b']z/[f'g'b']/ ([^c'e']2 [a'^c''e''])!8va)! z | %46
 [f^gb] z [fgb]z/[fgb]/ ([^ce]>[=cf] [^ce]>[=cf] | %47
!>(! [^ce]>[=cf] [^ce]>[=cf]- [cf])!>)! z!pp! !arpeggio!.[Bf] z | %48
 !arpeggio!.[Be] z z2!p! !arpeggio!.[d^g] z z2 | %49
!mf! !arpeggio!.[Adfa] z/!p! ([df]/[ce]) .[Ec] [CA]2 z2 | z8 |] %51
V:4
 .^G,.A,.B,.C .D.F.E.D | .F,.=G,.A,.B, .C.E.D.C | .D.C._B,.A, .G,.F,.E,.D, | %3
 .[E,^G,] z .[F,A,] z [E,G,]4 | .D,.E,.F,.^G, .A,.B,.C.E | .F.^G,.A,.B, .C.C,.D,.E, | %6
 .F,.D,.E,.F, .^F,.^D,.E,.F, | .G,.E,.=F,.G, .A,.G,.F,.E, | .D,.E,.F,.^G, .A,.B,.C.E | %9
 .F.^G,.A,.B, .C.C,.D,.E, | .F,.D,.E,.F, .^F,.^D,.E,.=F, | .E,.^D,.E,.E,, A,,4 | %12
[K:treble] .^G.A.B.c .d.f.e.d | .F.G.A.B .c.e.d.c | .d.c._B.A .G.F.E.D | %15
 .E z[K:bass] .[E,=B,E] z [A,E]2 z2 |"_nicht stacc." C,D,E,^F, G,A,B,^C |[K:treble] DEF^F GA_B=B | %18
 AG^F=F _BA_AG | c=B_BA _AG=A=B |[K:bass] C,D,E,^F, G,A,B,^C |[K:treble] DEFG FED=C | %22
 B,^^C^D^F ^GE^G,A, | B,^C^^C^D EB,[K:bass] E,2 | =D,"^kräftig"E,F,^G, A,B,CE | F^G,A,B, CC,D,E, | %26
 F,D,E,F, ^F,^D,E,F, | G,E,=F,G, A,G,F,!ff!E, | .D,.E,.F,.^G, .A,.B,.C.E | %29
 .F.^G,.A,.B, .C.C,.D,.E, | .F,.D,.E,.F, .^F,.^D,.E,.=F, | .E,.^D,.E,.E,, A,,4 | %32
[K:treble]"_nicht stacc." DEF^G AA,B,C | DEF^G AA,B,C | .D.E.F.^G .A.G.A.G | %35
 .A.^G.A.F !fermata![EG]4 |"^a tempo" (^CD^DE F^FGF | =FG^GA GA_B=B) |"^sehr zart" (cdcB ABAG | %39
 FG^F=F EFE^D) | .=D.E.F.^G .A.B,.C.E | .F.^G,.A,.B, .C[K:bass] .C,.E,.A, | DD,F,D CC,E,C | %43
 [D,C]2 [E,B,]2 [A,E]4 |[K:treble] .d.e.f.^g .a.A.B.^c | .d.E.F.^G .A.A,.B,.^C | %46
 .D.E.F.^G .A.G.AG |"^dim." .A.^G.A.G .A z .[DA] z | .[EA] z z2 .[EB] z z2 | %49
 .[DF] z .[A,E] z[K:bass] [A,,E,]4- | [A,,E,] z z2 z4 |] %51
V:5
 x8 | x8 | x8 | x8 | x8 | x8 | x8 | x8 | x8 | x8 | x8 | [Ac]z/[Bd]/ cd [ca]4 | x8 | x8 | x8 | x8 | %16
 x8 | d>^c x2 x4 | x8 | x8 | x8 | d>^c x2 x4 | x8 | x8 | x8 | x8 | x8 | x8 | x8 | x8 | x8 | %31
 [Ac]z/[Bd]/ cd [^ca]4 | x8 | x8 | x8 | x8 | x8 | x8 | x8 | x8 | x8 | x8 | x8 | x8 |!8va(! x8 | %45
 x7!8va)! x | x8 | x8 | x8 | x8 | x8 |] %51

